hornpipes/bobbycaseys.htmlhornpipes/bobbycaseys.htmlhornpipes/bobbycaseys.htmlhornpipes/bobbycaseys.htmlhornpipes/bobbycaseys.htmlhornpipes/bobbycaseys.htmlhornpipes/bobbycaseys.htmlhornpipes/bobbycaseys.htmlhornpipes/bobbycaseys.htmlFrom: <I>Cherish the Ladies: New Day Dawning</I>
hornpipes/bobbycaseys.htmlhornpipes/bobbycaseys.html<PRE>T:Joe Ryan's Barndance
T:Joe Ryan's Barndance
M:4/4
L:1/8
R:barndance
D:Cherish the Ladies: New Day Dawning
Z:Devin McCabe
K:A
(3EFG |: A2cA E2FD | CDEC A,2Bc | d2c2B2A2 | F4- FdcB |
!A2cA E2FD | CDEC A,2Bc | dcdf e2G2 |1 A6 (3EFG :|2 A6 (3efg |:
!~a2 ~g2 ~f2 e2 | f2 e2 c3c | d2 c2 B2 A2 | F4- FdcB |
!A2cA E2FD | CDEC A,2Bc | dcdf e2G2 |1 A6 (3efg :|2 A6 (3EFG ||

%  ABC2Win Version 2.1 1/20/2001
hornpipes/bobbycaseys.htmlhornpipes/bobbycaseys.htmlhornpipes/bobbycaseys.htmlhornpipes/bobbycaseys.htmlhornpipes/bobbycaseys.htmlhornpipes/bobbycaseys.htmlhornpipes/bobbycaseys.html